X:1
T:Veni Cito, 88.88.88
T:John Bacchus Dykes, 1868
T:Veni Cito, 88.88.88
T:Public Domain
C:John Bacchus Dykes, 1868
Z:Public Domain
%%score ( 1 2 ) ( 3 4 )
L:1/8
M:3/4
K:F
V:1 treble 
V:2 treble 
V:3 bass 
V:4 bass 
V:1
 [B,F]2 (!>!AG) (FE) | [CF]4 C2 | (C3 D) [EG]2 | [FA]6 | [FA]2 [Fd]2 [Dd]2 | [Ec]4 [F=B]2 | %6
 [EA]4 [E^G]2 | [EA]4 [Ac]2 | (c2 d2) [Ge]2 | [Ff]4 [FA]2 | (A2 =B2) [E^c]2 | [Dd]4 [DF]2 | %12
 (F2 G2) [CA]2 | [B,B]2 [_Ec]2 [Dd]2 | [CF]4 [=B,F]2 | ([CE]4 B,2) | [A,F]2 (AG) (FE) | %17
 [CF]4 [C^F]2 | [B,G]2 (BA) (G^F) | (D4 C2) | [DG]2 [Ed]2 (FC) | [B,E]2 [A,F]2 [DG]2 | %22
 [CA]2 [B,F]3 [B,G] | (B,2 A,4) |] %24
V:2
 x2 D2 C2 | x4 C2 | F4 x2 | x6 | x6 | x6 | x6 | x6 | G4 x2 | x6 | E4 x2 | x6 | C4 x2 | x6 | x6 | %15
 x4 B,2 | x2 D2 C2 | x6 | x2 _E2 D2 | G6 | x4 c2 | x6 | x6 | F6 |] %24
V:3
 [D,F,]2 (F,G,) (A,B,) | (B,2 A,2) [G,B,]2 | A,4 [G,B,]2 | (F,4 E,2) | [D,D]2 [D,A,]2 F,2 | %5
 [A,C]4 [D,D]2 | [E,C]4 [E,=B,]2 | [A,C]4 [A,E]2 | (E2 D2) [B,C]2 | [A,C]4 [A,C]2 | %10
 (^C2 =B,2) [G,A,]2 | [F,A,]4 [F,A,]2 | (A,2 G,2) [=E,F,]2 | [D,F,]2 [C,A,]2 [B,,B,]2 | %14
 [C,A,]4 [D,G,]2 | [C,G,]6 | [D,F,]2 (F,G,) (A,B,) | (B,2 A,2) [D,A,]2 | [_E,G,]2 G,A, B,C | %19
 (C2 B,2 A,2) | [B,,B,]2 [B,,G,]2 [A,,A,]2 | [C,G,]2 [D,F,]2 [B,,B,]2 | !>![C,F,]2 (!>!A,G, F,E,) | %23
 [F,,F,]6 |] %24
V:4
 x2 B,,2 C,2 | F,4 x2 | A,4 x2 | C6 | x4 F,2 | x6 | x6 | x6 | B,4 x2 | x6 | G,4 x2 | x6 | _E,4 x2 | %13
 x6 | x6 | x6 | x2 B,,2 C,2 | F,4 x2 | x2 C,2 D,2 | G,6 | x6 | x6 | x2 C,4 | x6 |] %24

